svgs/regular/truck-pickup.svg

<svg xmlns="http://www.w3.org/2000/svg" viewBox="0 0 640 512"><!-- Font Awesome Pro 6.0.0-alpha2 by @fontawesome - https://fontawesome.com License - https://fontawesome.com/license (Commercial License) --><path d="M616 320H608V232C608 201.125 582.875 176 552 176H512.016L412.25 52.766C401.594 39.578 385.719 32 368.719 32H280C249.125 32 224 57.125 224 88V176H88C57.125 176 32 201.125 32 232V320H24C10.75 320 0 330.75 0 344S10.75 368 24 368H81.613C80.73 373.23 80 378.52 80 384C80 437.02 122.98 480 176 480S272 437.02 272 384C272 378.52 271.27 373.23 270.387 368H369.613C368.73 373.23 368 378.52 368 384C368 437.02 410.98 480 464 480S560 437.02 560 384C560 378.52 559.27 373.23 558.387 368H616C629.25 368 640 357.25 640 344S629.25 320 616 320ZM272 88C272 83.594 275.594 80 280 80H368.719C371.125 80 373.437 81.094 374.937 82.953L450.266 176H272V88ZM176 432C149.533 432 128 410.467 128 384S149.533 336 176 336S224 357.533 224 384S202.467 432 176 432ZM464 432C437.533 432 416 410.467 416 384S437.533 336 464 336S512 357.533 512 384S490.467 432 464 432ZM464 288C435.68 288 410.486 300.494 392.914 320H247.086C229.514 300.494 204.32 288 176 288C147.162 288 121.598 300.979 104 321.107V320H80V232C80 227.594 83.594 224 88 224H552C556.406 224 560 227.594 560 232V320H536V321.107C518.402 300.979 492.838 288 464 288Z"/></svg>

<svg xmlns="http://www.w3.org/2000/svg" viewBox="0 0 640 512"><!--! Font Awesome Pro 6.0.0-alpha3 by @fontawesome - https://fontawesome.com License - https://fontawesome.com/license (Commercial License) --><path d="M616 320H608V232c0-30.88-25.12-56-56-56h-39.98l-99.77-123.2C401.6 39.58 385.7 32 368.7 32H280C249.1 32 224 57.13 224 88V176H88C57.13 176 32 201.1 32 232V320H24C10.75 320 0 330.8 0 344s10.75 24 24 24h57.61C80.73 373.2 80 378.5 80 384c0 53.02 42.98 96 96 96s96-42.98 96-96c0-5.48-.7305-10.77-1.613-16h99.23C368.7 373.2 368 378.5 368 384c0 53.02 42.98 96 96 96s96-42.98 96-96c0-5.48-.7305-10.77-1.613-16H616c13.25 0 24-10.75 24-24S629.3 320 616 320zM272 88c0-4.406 3.594-8 8-8h88.72c2.406 0 4.719 1.094 6.219 2.953L450.3 176H272V88zM176 432C149.5 432 128 410.5 128 384s21.53-48 48-48S224 357.5 224 384S202.5 432 176 432zM464 432c-26.47 0-48-21.53-48-48s21.53-48 48-48S512 357.5 512 384S490.5 432 464 432zM464 288c-28.32 0-53.51 12.49-71.09 32H247.1C229.5 300.5 204.3 288 176 288c-28.84 0-54.4 12.98-72 33.11V320H80V232C80 227.6 83.59 224 88 224h464c4.406 0 8 3.594 8 8V320h-24v1.107C518.4 300.1 492.8 288 464 288z"/></svg>
